site/static/assets/aico-exit-intent-popup.svg

<svg xmlns="http://www.w3.org/2000/svg" viewBox="0 0 100 100"><path fill="#23507a" d="M94.982 29.446c.012.174.018.355.018.545v45.941a7.272 7.272 0 0 1-7.272 7.272H18.061c-.184 0-.362-.006-.533-.018-2.25-.157-2.067-3.557.189-3.557H87.73a3.695 3.695 0 0 0 3.695-3.696V29.632c0-2.257 3.403-2.438 3.557-.186M46.2 57.173c7.6 0 14.623-2.467 18.785-6.603l2.834 2.854c-4.899 4.864-12.982 7.769-21.619 7.769-8.633 0-16.716-2.905-21.619-7.769l2.834-2.854c4.166 4.134 11.189 6.603 18.785 6.603M19.16 22.791a1.564 1.564 0 1 1 1.564 1.564c-.864 0-1.564-.7-1.564-1.564m-5.288 0a1.564 1.564 0 1 1 1.564 1.564c-.864 0-1.564-.7-1.564-1.564m-5.288 0a1.564 1.564 0 1 1 1.564 1.564c-.864 0-1.564-.7-1.564-1.564m29.873 14.886a4.674 4.674 0 1 1-4.674-4.674 4.674 4.674 0 0 1 4.674 4.674m24.971 0a4.674 4.674 0 1 1-4.674-4.674 4.674 4.674 0 0 1 4.674 4.674m23.948 33.556V21.458A4.465 4.465 0 0 0 82.917 17H9.458A4.465 4.465 0 0 0 5 21.458v49.775a4.464 4.464 0 0 0 4.458 4.458h73.459c2.458 0 4.459-2 4.459-4.458" fill-rule="evenodd"/></svg>

<svg xmlns="http://www.w3.org/2000/svg" xmlns:xlink="http://www.w3.org/1999/xlink" viewBox="0 0 100 100" version="1.1" x="0px" y="0px"><g stroke="none" stroke-width="1" fill="none" fill-rule="evenodd"><path fill="#23507a" d="M94.982,29.446 C94.994,29.62 95,29.801 95,29.991 L95,75.932 C95,79.948 91.744,83.204 87.728,83.204 L18.061,83.204 C17.877,83.204 17.699,83.198 17.528,83.186 C15.278,83.029 15.461,79.629 17.717,79.629 L87.73,79.629 C89.771,79.629 91.425,77.974 91.425,75.933 L91.425,29.632 C91.425,27.375 94.828,27.194 94.982,29.446 M46.2,57.173 L46.2,57.173 C53.8,57.173 60.823,54.706 64.985,50.57 L64.985,50.57 L67.819,53.424 C62.92,58.288 54.837,61.193 46.2,61.193 L46.2,61.193 C37.567,61.193 29.484,58.288 24.581,53.424 L27.415,50.57 L27.415,50.57 C31.581,54.704 38.604,57.173 46.2,57.173 M19.16,22.791 C19.16,21.927 19.86,21.227 20.724,21.227 L20.724,21.227 C21.588,21.227 22.288,21.927 22.288,22.791 C22.288,23.655 21.588,24.355 20.724,24.355 L20.724,24.355 C19.86,24.355 19.16,23.655 19.16,22.791 M13.872,22.791 C13.872,21.927 14.572,21.227 15.436,21.227 L15.436,21.227 C16.3,21.227 17,21.927 17,22.791 C17,23.655 16.3,24.355 15.436,24.355 L15.436,24.355 C14.572,24.355 13.872,23.655 13.872,22.791 M8.584,22.791 C8.584,21.927 9.284,21.227 10.148,21.227 L10.148,21.227 C11.012,21.227 11.712,21.927 11.712,22.791 C11.712,23.655 11.012,24.355 10.148,24.355 L10.148,24.355 C9.284,24.355 8.584,23.655 8.584,22.791 M38.457,37.677 C38.457,40.259 36.364,42.351 33.783,42.351 L33.783,42.351 C31.201,42.351 29.108,40.259 29.108,37.677 C29.108,35.096 31.201,33.003 33.783,33.003 L33.783,33.003 C36.364,33.003 38.457,35.096 38.457,37.677 M63.428,37.677 C63.428,40.259 61.335,42.351 58.754,42.351 L58.754,42.351 C56.173,42.351 54.08,40.259 54.08,37.677 C54.08,35.096 56.173,33.003 58.754,33.003 L58.754,33.003 C61.335,33.003 63.428,35.096 63.428,37.677 M87.376,71.233 L87.376,21.458 C87.376,19.001 85.375,17 82.917,17 L9.458,17 C7.001,17 5,19.001 5,21.458 L5,43.513 L5,71.233 C5,73.691 7.001,75.691 9.458,75.691 L82.917,75.691 C85.375,75.691 87.376,73.691 87.376,71.233"></path></g></svg>
